X: 3293
M: 6/8
L: 1/8
K: G
ud |\
g2d B2d | gfe dcB | gee e2d | ege e2d |\
g2d B2d | gfe dcB | c2d e2d | egB A2 :|
|: d |\


